samples('github:eddyflux/crate')
setcps(.75)
stack(
s("bd").struct("<[x*<1 2> [~@3 x]] x>"),
s("~ [rim, sd:<2 3>]").room("<0 .2>"),
n("[0 <1 3>]*<2!3 4>").s("hh"),
s("rd:<1!3 2>*2").mask("<0 0 1 1>/16").gain(.5)
).bank('crate')