// Complete Strudel pattern with pianoroll visualization
// This example shows a melodic pattern with visualization

samples('github:tidalcycles/dirt-samples')

// Pattern with pianoroll visualizationsss
// The _pianoroll() function will render a visual timeline of the pattern
$: note("c e g c5 e5 g5 c4 e4 g4")
  .s("sawtooth")
  .lpf(800)
  .lpenv(4)

  ._pianoroll({ fold: false })





// You can also have multiple patterns with different visualizations
 $: note("c2 a2 eb2 f2")
   .euclid(5,8)
   .s("sine")
   ._pianoroll({ fold: false })





// More complex example with transformations
// $: note("c a f e")
//   .color("cyan")
//   .slow(2)
//   ._punchcard({ cycles: 6, labels: true })
//   .gain(0.5)
