// Test file: all 6 supported Strudel visualizations
// Open in Strudel overlay and run (play/update) to see each viz below its $: block.

samples('github:tidalcycles/dirt-samples')

// 1. Pianoroll – renders the pattern directly (no subsequent transforms)
$: note("c2 a2 eb2 f2")
  .euclid(5, 8)
  .s("sawtooth")
  .lpf(400)
  ._pianoroll()





// 2. Punchcard – includes transformations applied after (e.g. color)
$: note("c3 e3 g3 c4")
  .s("sine")
  .color("cyan")
  ._punchcard()





// 3. Spiral
$: note("c2 a2 eb2")
  .euclid(5, 8)
  .s("sawtooth")
  .lpenv(4)
  .lpf(300)
  ._spiral({ steady: 0.96 })





// 4. Scope – oscilloscope (time domain)
$: s("bd sd, hh*8")
  .gain(0.3)
  ._scope()





// 5. Spectrum – spectrum analyzer
$: note("c3 e3 g3 c4")
  .scale("d3:minor:pentatonic")
  .s("sine")
  .dec(0.3)
  .room(0.5)
  ._spectrum()





// 6. Pitchwheel – pitch circle
$: n("0 .. 12")
  .scale("C:chromatic")
  .s("sawtooth")
  .lpf(500)
  ._pitchwheel()




